azure-patterns/svg-gear-check-blue.svg

<svg xmlns="http://www.w3.org/2000/svg" viewBox="0 0 49 49">
                                
                            
  <path d="M48.3369 26.4773V21.4331H43.1327C42.6864 18.0984 41.3727 15.0415 39.4275 12.49L43.1075 8.80998L39.5454 5.24789L35.8654 8.92788C33.3138 6.98262 30.257 5.66894 26.9222 5.22262V0.0100098H21.878V5.2142C18.5433 5.66052 15.4865 6.9742 12.9349 8.91945L9.25493 5.23947L5.69283 8.80156L9.37282 12.4815C7.42756 15.0331 6.11388 18.09 5.66757 21.4247H0.446533V26.4689H5.65073C6.09704 29.8036 7.41072 32.8604 9.35598 35.412L5.67599 39.092L9.23808 42.6541L12.9181 38.9741C15.4696 40.9194 18.5265 42.233 21.8612 42.6793V47.8835H26.9054V42.6793C30.2401 42.233 33.297 40.9194 35.8485 38.9741L39.5285 42.6541L43.0906 39.092L39.4106 35.412C41.3559 32.8604 42.6696 29.8036 43.1159 26.4689H48.3369V26.4773ZM10.5433 23.951C10.5433 20.2542 11.9833 16.7763 14.6023 14.1573C17.2212 11.5384 20.6991 10.0984 24.3959 10.0984C28.0928 10.0984 31.5706 11.5384 34.1896 14.1573C36.8085 16.7763 38.2485 20.2542 38.2485 23.951C38.2485 27.6478 36.8001 31.1341 34.1896 33.7446C31.5706 36.3636 28.0928 37.8036 24.3959 37.8036C20.6991 37.8036 17.2212 36.3636 14.6023 33.7446C11.9833 31.1341 10.5433 27.6562 10.5433 23.951Z" fill="#0078D4"></path>
  <path d="M24.3961 35.9511C31.0235 35.9511 36.396 30.5785 36.396 23.9511C36.396 17.3237 31.0235 11.9512 24.3961 11.9512C17.7687 11.9512 12.3961 17.3237 12.3961 23.9511C12.3961 30.5785 17.7687 35.9511 24.3961 35.9511Z" fill="#50E6FF"></path>
  <path d="M21.7267 30.149L17.3478 25.7701L19.133 23.9848L21.7267 26.5785L29.6593 18.6459L31.4446 20.4311L21.7267 30.149Z" fill="#0078D7"></path>
</svg>

<svg xmlns="http://www.w3.org/2000/svg" viewBox="0 0 49 49"><path d="M48.337 26.477v-5.044h-5.204a18.856 18.856 0 0 0-3.706-8.943l3.68-3.68-3.562-3.562-3.68 3.68a18.856 18.856 0 0 0-8.943-3.705V.01h-5.044v5.204a18.856 18.856 0 0 0-8.943 3.705l-3.68-3.68-3.562 3.563 3.68 3.68a18.857 18.857 0 0 0-3.705 8.943H.447v5.044H5.65a18.856 18.856 0 0 0 3.705 8.943l-3.68 3.68 3.562 3.562 3.68-3.68a18.855 18.855 0 0 0 8.943 3.705v5.204h5.044V42.68a18.855 18.855 0 0 0 8.944-3.705l3.68 3.68 3.562-3.562-3.68-3.68a18.856 18.856 0 0 0 3.705-8.943h5.22v.008zm-37.794-2.526a13.76 13.76 0 0 1 4.06-9.794 13.76 13.76 0 0 1 9.793-4.059 13.76 13.76 0 0 1 9.794 4.06 13.76 13.76 0 0 1 4.059 9.793 13.78 13.78 0 0 1-4.06 9.794 13.76 13.76 0 0 1-9.793 4.059c-3.697 0-7.175-1.44-9.794-4.06a13.73 13.73 0 0 1-4.059-9.793z" fill="#0078D4"/><path d="M24.396 35.951c6.627 0 12-5.373 12-12s-5.373-12-12-12-12 5.373-12 12 5.373 12 12 12z" fill="#50E6FF"/><path d="M21.727 30.149l-4.38-4.379 1.786-1.785 2.594 2.593 7.932-7.932 1.786 1.785-9.718 9.718z" fill="#0078D7"/></svg>
